X: 80
T: Spindle Shanks
R:reel
M:4/4
K:D
"D"F2EG FDDE|FGAG FDDE|F2EG FDDE|1(3FGA Bc "G"dBAG:|2(3FGA Bc"G" d2cd||
"A"~e3d efed|cdef "G"g2fg|"A" ~e3d efed|cABc "G"d2cd|
"A"~e3d efed|cdef "G"g2fg| "D"af~f2 "A"ge~e2|"D"dfec "G"dBAG|]


